Icons/TM_Icons/more icons/question.svg

<?xml version='1.0' encoding='utf-8'?>
<ns0:svg xmlns:ns0="http://www.w3.org/2000/svg" version="1.1" viewBox="160.0 -250.0 1728.0 1728.0" role="img" focusable="false" preserveAspectRatio="xMidYMid meet">
   <ns0:path fill="currentColor" d="M1600 -294c0 128 -83 242.333 -249 343c-90 54.667 -135 126.667 -135 216v209h-384v-192c0 -74 20.5 -144.834 61.5 -212.5c41 -67.667 94.5 -116.5 160.5 -146.5c108 -49.333 162 -121.667 162 -217c0 -54 -18.5 -99.5 -55.5 -136.5s-82.5 -55.5 -136.5 -55.5 s-99.5 18.5 -136.5 55.5s-55.5 82.5 -55.5 136.5v114h-384v-114c0 -122 68.667 -219.67 206 -293c113.333 -60.6699 236.667 -91 370 -91c134 0 257.67 30.3398 371 91c136.67 72.6699 205 170.33 205 293zM1216 858c0 54 -18.5 99.5 -55.5 136.5s-82.5 55.5 -136.5 55.5 s-99.5 -18.5 -136.5 -55.5s-55.5 -82.5 -55.5 -136.5s18.5 -99.5 55.5 -136.5s82.5 -55.5 136.5 -55.5s99.5 18.5 136.5 55.5s55.5 82.5 55.5 136.5z" />
</ns0:svg>

<svg xmlns="http://www.w3.org/2000/svg" width="400" height="200" viewBox="-704 -678 3456 1728"><path fill="currentColor" d="M1600-294q0 192-249 343-135 82-135 216v209H832V282q0-111 61.5-212.5T1054-77q162-74 162-217 0-81-55.5-136.5C1105-486 1078-486 1024-486s-99.5 18.5-136.5 55.5S832-348 832-294v114H448v-114c0-122 68.667-219.67 206-293 113.333-60.67 236.667-91 370-91 134 0 257.67 30.34 371 91 136.67 72.67 205 170.33 205 293M1216 858q0 81-55.5 136.5C1105 1050 1078 1050 1024 1050s-99.5-18.5-136.5-55.5S832 912 832 858s18.5-99.5 55.5-136.5S970 666 1024 666s99.5 18.5 136.5 55.5S1216 804 1216 858"/></svg>
